package/converter/svg/light/window-flip.svg

<svg xmlns="http://www.w3.org/2000/svg" viewBox="0 0 512 512"><!-- Font Awesome Pro 6.0.0-alpha2 by @fontawesome - https://fontawesome.com License - https://fontawesome.com/license (Commercial License) --><path d="M448 32H64C28.654 32 0 60.652 0 96V416C0 451.348 28.654 480 64 480H448C483.346 480 512 451.348 512 416V96C512 60.652 483.346 32 448 32ZM480 416C480 433.645 465.645 448 448 448H64C46.355 448 32 433.645 32 416V96C32 78.355 46.355 64 64 64H448C465.645 64 480 78.355 480 96V416ZM224 104C210.746 104 200 114.742 200 128C200 141.254 210.746 152 224 152S248 141.254 248 128C248 114.742 237.254 104 224 104ZM320 104C306.746 104 296 114.742 296 128C296 141.254 306.746 152 320 152S344 141.254 344 128C344 114.742 333.254 104 320 104ZM416 104C402.746 104 392 114.742 392 128C392 141.254 402.746 152 416 152S440 141.254 440 128C440 114.742 429.254 104 416 104Z"/></svg>

<svg xmlns="http://www.w3.org/2000/svg" viewBox="0 0 512 512"><!--! Font Awesome Pro 6.6.0 by @fontawesome - https://fontawesome.com License - https://fontawesome.com/license (Commercial License) Copyright 2024 Fonticons, Inc. --><path d="M448 64c17.7 0 32 14.3 32 32l0 320c0 17.7-14.3 32-32 32L64 448c-17.7 0-32-14.3-32-32L32 96c0-17.7 14.3-32 32-32l384 0zm64 32c0-35.3-28.7-64-64-64L64 32C28.7 32 0 60.7 0 96L0 416c0 35.3 28.7 64 64 64l384 0c35.3 0 64-28.7 64-64l0-320zm-96 56a24 24 0 1 0 0-48 24 24 0 1 0 0 48zM296 128a24 24 0 1 0 48 0 24 24 0 1 0 -48 0zm-72 24a24 24 0 1 0 0-48 24 24 0 1 0 0 48z"/></svg>
